src/actions/22/edit-clear-locationbar-ltr.svg

<svg version="1.1" viewBox="0 0 22 22" xmlns="http://www.w3.org/2000/svg">
 <defs>
  <style id="current-color-scheme" type="text/css">.ColorScheme-Text {
        color:#363636;
      }</style>
 </defs>
 <path class="ColorScheme-Text" d="m13.75 5c0.25664-6.44e-5 0.50348 0.098533 0.68945 0.27539l4.6309 4.4121 0.61914 0.58789c0.41438 0.3942 0.41438 1.055 0 1.4492l-0.61914 0.58789-4.6309 4.4121c-0.18597 0.17686-0.43281 0.27545-0.68945 0.27539h-10.75c-0.55226-5.5e-5 -0.99994-0.44774-1-1v-10c5.52e-5 -0.55226 0.44774-0.99994 1-1h10.75zm0 1h-10.75v10h10.75l4.6309-4.4102 0.61914-0.58984-0.61914-0.58984-4.6309-4.4102z" fill="currentColor"/>
 <path class="ColorScheme-Text" d="m11.01 8-2.0098 2.0098-2.0098-2.0098-0.99024 0.99023 2.0098 2.0098-2.0098 2.0098 0.99024 0.99023 2.0098-2.0098 2.0098 2.0098 0.99023-0.99023-2.0098-2.0098 2.0098-2.0098z" fill="currentColor"/>
</svg>

<svg xmlns="http://www.w3.org/2000/svg" viewBox="0 0 22 22">
    <defs>
        <style id="current-color-scheme" type="text/css">
            .ColorScheme-Text{color:#050505;opacity:.7}
        </style>
    </defs>
    <path fill="currentColor" d="M13.75 5a1 1 0 0 1 .69.275l4.63 4.412.62.588a1 1 0 0 1 0 1.45l-.62.587-4.63 4.413a1 1 0 0 1-.69.275H3a1 1 0 0 1-1-1V6a1 1 0 0 1 1-1h10.75zm0 1H3v10h10.75l4.63-4.41L19 11l-.62-.59L13.75 6z" class="ColorScheme-Text"/>
    <path fill="currentColor" d="M11.01 8 9 10.01 6.99 8 6 8.99 8.01 11 6 13.01l.99.99L9 11.99 11.01 14l.99-.99L9.99 11 12 8.99z" class="ColorScheme-Text"/>
</svg>
